packages/ffe-icons/icons/filled/md/account_balance_wallet.svg

<svg xmlns="http://www.w3.org/2000/svg" height="24" viewBox="0 -960 960 960" width="24"><path d="M212.309-140.001q-30.308 0-51.308-21t-21-51.308v-535.382q0-30.308 21-51.308t51.308-21h535.382q30.308 0 51.308 21t21 51.308v27.694h-287.69q-59.461 0-95.884 36.422-36.422 36.423-36.422 95.884v215.382q0 59.461 36.422 95.884 36.423 36.422 95.884 36.422h287.69v27.694q0 30.308-21 51.308t-51.308 21H212.309Zm320-160q-30.308 0-51.308-21t-21-51.308v-215.382q0-30.308 21-51.308t51.308-21h255.382q30.308 0 51.308 21t21 51.308v215.382q0 30.308-21 51.308t-51.308 21H532.309ZM640-420q26 0 43-17t17-43q0-26-17-43t-43-17q-26 0-43 17t-17 43q0 26 17 43t43 17Z"/></svg>

<svg xmlns="http://www.w3.org/2000/svg" height="24" viewBox="0 -960 960 960" width="24"><path d="M212.31-140Q182-140 161-161q-21-21-21-51.31v-535.38Q140-778 161-799q21-21 51.31-21h535.38Q778-820 799-799q21 21 21 51.31V-720H532.31q-59.46 0-95.88 36.43Q400-647.15 400-587.69v215.38q0 59.46 36.43 95.88Q472.85-240 532.31-240H820v27.69Q820-182 799-161q-21 21-51.31 21H212.31Zm320-160Q502-300 481-321q-21-21-21-51.31v-215.38Q460-618 481-639q21-21 51.31-21h255.38Q818-660 839-639q21 21 21 51.31v215.38Q860-342 839-321q-21 21-51.31 21H532.31ZM640-420q26 0 43-17t17-43q0-26-17-43t-43-17q-26 0-43 17t-17 43q0 26 17 43t43 17Z"/></svg>
